X:982
T:Swansea Hornpipe. JBut.977, The
Z:Village Music Project 2019 Nigel Rainer
B:John Buttrey MS, poss. Lincolnshire, early 19thC
S:https://buttreymilitarysocialtunes1800.wordpress.com
N:Crotchet rests added to the end of each part to correct bar values.
M:C
L:1/8
Q:1/2=90
R:.Hornpipe
K:G
G2 g2 gdBd|c2 e2 e2 g2|d3 e edcB|ABcA GFED|
G2 g2 gdBd|c2 e2 e2 g2|d3 g ecAF|G2 G2 G2 z2:|
|:(BG)(BG) B2 d2|(ec)(ec) e2 g2|d3 e edcB|ABcA GFED|
(BG)(BG) B2 d2|(ec)(ec) e2 g2|d3 g ecAF|G2 G2 G2 z2:|

